packages/ui-icons/svg/Solid/forward.svg

<svg viewBox="0 0 1920 1920" version="1.1" xmlns="http://www.w3.org/2000/svg">
    <path d="M1270.776 60l-169.68 169.68 340.44 340.44h-403.92C465.456 570.12-.024 1035.6-.024 1607.76v162.36h240v-162.36c0-439.8 357.96-797.64 797.64-797.64h414.48l-351 351.12 169.68 169.68 635.4-635.52-635.4-635.4z" stroke="none" stroke-width="1" fill-rule="evenodd"/>
</svg>

<svg viewBox="0 0 1920 1920" version="1.1" xmlns="http://www.w3.org/2000/svg">
    <path d="M1270.776,60 L1101.096,229.68 L1441.536,570.12 L1037.616,570.12 C465.456,570.12 -0.024,1035.6 -0.024,1607.76 L-0.024,1770.12 L239.976,1770.12 L239.976,1607.76 C239.976,1167.96 597.936,810.12 1037.616,810.12 L1452.096,810.12 L1101.096,1161.24 L1270.776,1330.92 L1906.176,695.4 L1270.776,60 Z" stroke="none" stroke-width="1" fill-rule="evenodd"/>
</svg>
